app/dist/common/images/mitie-plc.svg

<svg fill="none" height="18" viewBox="0 0 18 18" width="18" xmlns="http://www.w3.org/2000/svg" xmlns:xlink="http://www.w3.org/1999/xlink"><linearGradient id="a" gradientUnits="userSpaceOnUse" x1="11.6471" x2="4.71744" y1="6.07692" y2="12.9952"><stop offset="0" stop-color="#7d2e8b"/><stop offset="1" stop-color="#cd2b7b"/></linearGradient><linearGradient id="b" gradientUnits="userSpaceOnUse" x1="12.6765" x2="6.05424" y1="5" y2="11.6245"><stop offset="0" stop-color="#f9ae40"/><stop offset="1" stop-color="#ee4937"/></linearGradient><linearGradient id="c" gradientUnits="userSpaceOnUse" x1="11.3529" x2="5.96695" y1="6.23082" y2="11.5263"><stop offset="0" stop-color="#34346a"/><stop offset="1" stop-color="#8e2c69"/></linearGradient><path d="m0 0h18v18h-18z" fill="#f0f3fa"/><g clip-rule="evenodd" fill-rule="evenodd"><path d="m8.49179 5c1.22985 0 2.34411.39227 3.15531 1.23077l-6.47063 6.76923c-.79651-.8488-1.17647-2.0124-1.17647-3.29639 0-2.59773 2.01104-4.70361 4.49179-4.70361z" fill="url(#a)"/><path d="m9.5082 13c-1.22985 0-2.3441-.3923-3.15526-1.2308l6.47056-6.7692c.7965.84876 1.1765 2.01239 1.1765 3.29639 0 2.59771-2.0111 4.70361-4.4918 4.70361z" fill="url(#b)"/><path d="m9.09856 5.30774c.99334 0 1.89334.24583 2.54844.92308l-5.29407 5.53848c-.64334-.6856-.88235-1.6254-.88235-2.66248 0-2.09817 1.62431-3.79908 3.62798-3.79908z" fill="url(#c)"/><path d="m10.0779 11.4615c-.99337 0-1.89334-.2458-2.54851-.923l5.29411-5.5385c.6433.68554.8824 1.62538.8824 2.66246 0 2.09817-1.6244 3.79904-3.628 3.79904z" fill="#ed4226"/></g></svg>

<!-- by TradingView --><svg width="18" height="18" viewBox="0 0 18 18" fill="none" xmlns="http://www.w3.org/2000/svg">
<rect width="18" height="18" fill="#F0F3FA"/>
<path fill-rule="evenodd" clip-rule="evenodd" d="M8.49179 5C9.72164 5 10.8359 5.39227 11.6471 6.23077L5.17647 13C4.37996 12.1512 4 10.9876 4 9.70361C4 7.10588 6.01104 5 8.49179 5Z" fill="url(#paint0_linear_5825_208832)"/>
<path fill-rule="evenodd" clip-rule="evenodd" d="M9.5082 13C8.27835 13 7.1641 12.6077 6.35294 11.7692L12.8235 5C13.62 5.84876 14 7.01239 14 8.29639C14 10.8941 11.9889 13 9.5082 13Z" fill="url(#paint1_linear_5825_208832)"/>
<path fill-rule="evenodd" clip-rule="evenodd" d="M9.09856 5.30774C10.0919 5.30774 10.9919 5.55357 11.647 6.23082L6.35293 11.7693C5.70959 11.0837 5.47058 10.1439 5.47058 9.10682C5.47058 7.00865 7.09489 5.30774 9.09856 5.30774Z" fill="url(#paint2_linear_5825_208832)"/>
<path fill-rule="evenodd" clip-rule="evenodd" d="M10.0779 11.4615C9.08453 11.4615 8.18456 11.2157 7.52939 10.5385L12.8235 5C13.4668 5.68554 13.7059 6.62538 13.7059 7.66246C13.7059 9.76063 12.0815 11.4615 10.0779 11.4615Z" fill="#ED4226"/>
<defs>
<linearGradient id="paint0_linear_5825_208832" x1="11.6471" y1="6.07692" x2="4.71744" y2="12.9952" gradientUnits="userSpaceOnUse">
<stop stop-color="#7D2E8B"/>
<stop offset="1" stop-color="#CD2B7B"/>
</linearGradient>
<linearGradient id="paint1_linear_5825_208832" x1="12.6765" y1="5" x2="6.05424" y2="11.6245" gradientUnits="userSpaceOnUse">
<stop stop-color="#F9AE40"/>
<stop offset="1" stop-color="#EE4937"/>
</linearGradient>
<linearGradient id="paint2_linear_5825_208832" x1="11.3529" y1="6.23082" x2="5.96695" y2="11.5263" gradientUnits="userSpaceOnUse">
<stop stop-color="#34346A"/>
<stop offset="1" stop-color="#8E2C69"/>
</linearGradient>
</defs>
</svg>
